X: 30399
T: Old Schoolmaster, The
R: reel
M: 4/4
K: Cmajor
G2 GA cded|cA ~A2 cAAG|EG ~G2 cdeg|gece decA|
G2 GA cded|cA ~A2 cAAG|EG ~G2 cdeg|gece decd||
egge gedg|eaag ~a2 ag|egge ~g2 eg|agec decd|
egge gedg|eaag ~a2 aa|gede cdea|gece decA||

